images/tg.svg

<svg width="154" height="140" viewBox="0 0 154 140" fill="none" xmlns="http://www.w3.org/2000/svg">
<path d="M148.892 3.61923C147 1.99973 144.704 0.922308 142.249 0.501104C139.794 0.0799007 137.271 0.330603 134.947 1.22665L8.75544 50.8556C5.99769 51.9055 3.66112 53.8321 2.10496 56.3392C0.548796 58.8464 -0.140813 61.7953 0.142155 64.7325C0.395295 67.6811 1.59836 70.4679 3.57061 72.6744C5.54286 74.8809 8.17782 76.3878 11.0797 76.9688L40.9527 82.9161V120.719C40.938 123.424 41.7301 126.072 43.2278 128.325C44.7255 130.577 46.8608 132.332 49.3609 133.365C51.0341 134.039 52.8207 134.388 54.6246 134.391C56.4194 134.398 58.1975 134.045 59.8533 133.352C61.509 132.66 63.0087 131.641 64.2632 130.358L80.191 114.43L105.211 136.441C107.675 138.641 110.862 139.857 114.166 139.859C115.607 139.872 117.04 139.641 118.404 139.176C120.661 138.463 122.693 137.174 124.3 135.436C125.906 133.698 127.031 131.57 127.564 129.264L153.267 17.0177C153.823 14.5976 153.71 12.0717 152.939 9.71122C152.169 7.3507 150.769 5.24468 148.892 3.61923ZM90.1031 36.5001L47.2418 67.4669L23.4527 62.6817L90.1031 36.5001ZM57.359 114.088V94.3321L67.8863 103.561L57.359 114.088ZM112.593 121.129L62.2808 76.8321L134.742 24.5372L112.593 121.129Z" fill="url(#paint0_linear_2707_11)"/>
<defs>
<linearGradient id="paint0_linear_2707_11" x1="76.8473" y1="0.302246" x2="76.8473" y2="139.86" gradientUnits="userSpaceOnUse">
<stop stop-color="#7BCB38"/>
<stop offset="0.994792" stop-color="#149356"/>
</linearGradient>
</defs>
</svg>

<svg width="154" height="140" fill="none" xmlns="http://www.w3.org/2000/svg"><path d="M148.892 3.62a13.807 13.807 0 0 0-13.945-2.393L8.755 50.856A13.467 13.467 0 0 0 .142 64.733 13.672 13.672 0 0 0 11.08 76.969l29.873 5.947v37.803a13.606 13.606 0 0 0 8.408 12.646 14.151 14.151 0 0 0 5.264 1.026 13.407 13.407 0 0 0 9.638-4.033l15.928-15.928 25.02 22.011a13.456 13.456 0 0 0 8.955 3.418 12.777 12.777 0 0 0 4.238-.683 13.612 13.612 0 0 0 9.16-9.912l25.703-112.246a13.672 13.672 0 0 0-4.375-13.399ZM90.103 36.5 47.242 67.467l-23.79-4.785L90.104 36.5ZM57.36 114.088V94.332l10.527 9.229-10.527 10.527Zm55.234 7.041L62.281 76.832l72.461-52.295-22.149 96.592Z" fill="url(#a)"/><defs><linearGradient id="a" x1="76.847" y1=".302" x2="76.847" y2="139.86" gradientUnits="userSpaceOnUse"><stop stop-color="#7BCB38"/><stop offset=".995" stop-color="#149356"/></linearGradient></defs></svg>
